build/dist/assets/images/services/services-2.svg

<svg width="68" height="110" viewBox="0 0 68 110" fill="none" xmlns="http://www.w3.org/2000/svg">
<path fill-rule="evenodd" clip-rule="evenodd" d="M52.4969 2.31609L51.9043 0L50.0767 1.54124L43.3709 7.19638L38.3209 2.73061L35.9546 0.638138L35.8284 3.79434L35.3773 15.0742L35.3144 16.6482L36.8895 16.6341C41.7407 16.5907 44.8933 17.0496 47.4098 17.9494C49.9183 18.8463 51.9086 20.22 54.4122 22.2201L55.7002 23.2492L56.6034 21.8699L62.7873 12.4254L64.5176 9.78273L61.376 10.1119L54.6714 10.8143L52.4969 2.31609ZM44.3147 10.3249L50.1832 5.37584L52.0861 12.8129L52.4072 14.0679L53.6956 13.9329L58.5471 13.4247L54.9867 18.8623C52.9053 17.2813 50.8976 16.0105 48.4198 15.1245C45.7611 14.1739 42.652 13.6973 38.4371 13.6377L38.6998 7.07042L42.354 10.3019L43.3244 11.16L44.3147 10.3249ZM33.8182 103.747C33.8182 107.102 36.5359 109.81 39.9043 109.81C42.8517 109.81 45.378 107.713 45.9139 104.853L50.4689 80.2202C51.0431 77.0172 50.6603 73.7761 49.3971 70.8019L45.8756 72.289C46.8325 74.5768 47.1388 77.0553 46.6794 79.4957L42.1244 104.128C41.933 105.196 41.0144 105.959 39.9043 105.959C38.6794 105.959 37.6459 104.967 37.6459 103.709V81.0972C37.6459 78.0086 35.1196 75.492 32.0191 75.492C28.9187 75.492 26.3923 78.0086 26.3923 81.0972V103.709C26.3923 104.929 25.3971 105.959 24.134 105.959C23.0622 105.959 22.1053 105.196 21.9139 104.128L17.3589 79.4957C16.2871 73.6998 19.311 68.0183 24.7464 65.6923L49.7416 54.9013L49.8947 54.825C56.134 51.3551 60 44.7966 60 37.7042C60 26.9132 51.1962 18.1431 40.3636 18.1431H23.6364C12.8038 18.1431 4 26.9132 4 37.7042C4 48.4953 12.8038 57.2654 23.6364 57.2654V53.4523C14.9091 53.4523 7.82775 46.3981 7.82775 37.7042C7.82775 29.0104 14.9091 21.9562 23.6364 21.9562H40.3636C49.0909 21.9562 56.1722 29.0104 56.2105 37.7042C56.2105 43.3857 53.11 48.6478 48.134 51.4314L23.2153 62.1843C16.134 65.2347 12.1914 72.6321 13.5694 80.1821L18.1627 104.853C18.6603 107.713 21.1866 109.81 24.134 109.81C27.5024 109.81 30.2201 107.102 30.2201 103.747V81.1353C30.2201 80.1439 31.0239 79.3432 32.0191 79.3432C33.0144 79.3432 33.8182 80.1439 33.8182 81.1353V103.747Z" fill="#00AEDA"/>
</svg>

<svg width="68" height="110" fill="none" xmlns="http://www.w3.org/2000/svg"><path fill-rule="evenodd" clip-rule="evenodd" d="M52.497 2.316L51.904 0l-1.827 1.541-6.706 5.655-5.05-4.465L35.955.638l-.127 3.156-.45 11.28-.064 1.574 1.575-.014c4.852-.043 8.004.416 10.52 1.315 2.51.897 4.5 2.271 7.003 4.271l1.288 1.03.903-1.38 6.184-9.445 1.73-2.642-3.141.329-6.705.702-2.174-8.498zm-8.182 8.009l5.868-4.95 1.903 7.438.321 1.255 1.289-.135 4.851-.508-3.56 5.437c-2.082-1.58-4.09-2.851-6.567-3.737-2.659-.951-5.768-1.428-9.983-1.487L38.7 7.07l3.654 3.232.97.858.99-.835zm-10.497 93.422c0 3.355 2.718 6.063 6.086 6.063 2.948 0 5.474-2.097 6.01-4.957l4.555-24.633a16.524 16.524 0 00-1.072-9.418l-3.521 1.487c.957 2.288 1.263 4.766.803 7.207l-4.555 24.632c-.191 1.068-1.11 1.831-2.22 1.831a2.259 2.259 0 01-2.258-2.25V81.097c0-3.088-2.526-5.605-5.627-5.605-3.1 0-5.627 2.517-5.627 5.605v22.612c0 1.22-.995 2.25-2.258 2.25-1.072 0-2.029-.763-2.22-1.831l-4.555-24.632c-1.072-5.796 1.952-11.478 7.387-13.804l24.996-10.79.153-.077C56.134 51.355 60 44.797 60 37.705c0-10.792-8.804-19.562-19.636-19.562H23.636C12.804 18.143 4 26.913 4 37.704s8.804 19.561 19.636 19.561v-3.813c-8.727 0-15.808-7.054-15.808-15.748 0-8.694 7.081-15.748 15.808-15.748h16.728c8.727 0 15.808 7.054 15.847 15.748 0 5.682-3.101 10.944-8.077 13.727L23.215 62.184c-7.081 3.05-11.024 10.448-9.646 17.998l4.594 24.671c.497 2.86 3.024 4.957 5.971 4.957 3.368 0 6.086-2.708 6.086-6.063V81.135c0-.991.804-1.792 1.8-1.792.994 0 1.798.8 1.798 1.792v22.612z" fill="#00AEDA"/></svg>
